resources/icons/cisco/accesspoint.svg

<?xml version="1.0" encoding="UTF-8"?>
<svg xmlns="http://www.w3.org/2000/svg" xmlns:xlink="http://www.w3.org/1999/xlink" width="460pt" height="200pt" viewBox="0 0 460 200" version="1.1">
<g id="surface1">
<path style=" stroke:none;fill-rule:nonzero;fill:rgb(3.137255%,48.235294%,73.333333%);fill-opacity:1;" d="M 7.558594 76.609375 L 103.761719 5.511719 L 455.070312 5.511719 L 385.148438 76.609375 L 7.558594 76.609375 "/>
<path style="fill:none;stroke-width:0.5;stroke-linecap:butt;stroke-linejoin:miter;stroke:rgb(100%,100%,100%);stroke-opacity:1;stroke-miterlimit:4;" d="M 0.755859 7.660938 L 10.376172 0.551172 L 45.507031 0.551172 L 38.514844 7.660938 Z M 0.755859 7.660938 " transform="matrix(10,0,0,10,0,0)"/>
<path style=" stroke:none;fill-rule:nonzero;fill:rgb(3.137255%,48.235294%,73.333333%);fill-opacity:1;" d="M 385.148438 198.929688 L 455.070312 128.078125 L 455.070312 5.761719 L 385.148438 76.609375 L 385.148438 198.929688 "/>
<path style="fill:none;stroke-width:0.5;stroke-linecap:butt;stroke-linejoin:miter;stroke:rgb(100%,100%,100%);stroke-opacity:1;stroke-miterlimit:4;" d="M 38.514844 19.892969 L 45.507031 12.807813 L 45.507031 0.576172 L 38.514844 7.660938 Z M 38.514844 19.892969 " transform="matrix(10,0,0,10,0,0)"/>
<path style="fill-rule:nonzero;fill:rgb(3.137255%,48.235294%,73.333333%);fill-opacity:1;stroke-width:0.5;stroke-linecap:butt;stroke-linejoin:miter;stroke:rgb(100%,100%,100%);stroke-opacity:1;stroke-miterlimit:4;" d="M 0.810156 19.901953 L 38.514844 19.901953 L 38.514844 7.662109 L 0.810156 7.662109 Z M 0.810156 19.901953 " transform="matrix(10,0,0,10,0,0)"/>
<path style="fill:none;stroke-width:0.5625;stroke-linecap:round;stroke-linejoin:miter;stroke:rgb(100%,100%,100%);stroke-opacity:1;stroke-miterlimit:1;" d="M 35.517969 13.876953 C 35.517969 13.876953 33.071094 20.166016 30.128125 13.857031 C 27.192188 7.553906 24.741016 13.842188 24.741016 13.842188 C 24.741016 13.842188 22.294922 20.135938 19.355078 13.832031 C 16.421094 7.525 13.985156 13.871875 13.985156 13.871875 C 13.985156 13.871875 11.542188 20.166016 8.603906 13.857031 C 5.664062 7.553906 3.228125 13.837109 3.228125 13.837109 " transform="matrix(10,0,0,10,0,0)"/>
<path style="fill:none;stroke-width:1.125;stroke-linecap:round;stroke-linejoin:miter;stroke:rgb(100%,100%,100%);stroke-opacity:1;stroke-miterlimit:1;" d="M 3.228125 13.876953 C 3.228125 13.876953 5.673828 20.166016 8.614063 13.857031 C 11.553125 7.553906 14.003906 13.842188 14.003906 13.842188 C 14.003906 13.842188 16.444141 20.135938 19.383984 13.832031 C 22.323828 7.525 24.760938 13.871875 24.760938 13.871875 C 24.760938 13.871875 27.196875 20.166016 30.141016 13.857031 C 33.076172 7.553906 35.517969 13.837109 35.517969 13.837109 " transform="matrix(10,0,0,10,0,0)"/>
<path style="fill:none;stroke-width:0.5625;stroke-linecap:round;stroke-linejoin:miter;stroke:rgb(13.72549%,12.156863%,12.54902%);stroke-opacity:1;stroke-miterlimit:1;" d="M 36.083984 13.876953 C 36.083984 13.876953 33.637891 20.166016 30.694141 13.857031 C 27.758984 7.553906 25.307813 13.842188 25.307813 13.842188 C 25.307813 13.842188 22.860938 20.135938 19.921875 13.832031 C 16.987109 7.525 14.551953 13.871875 14.551953 13.871875 C 14.551953 13.871875 12.110156 20.166016 9.169922 13.857031 C 6.230078 7.553906 3.794141 13.837109 3.794141 13.837109 " transform="matrix(10,0,0,10,0,0)"/>
<path style="fill:none;stroke-width:1.125;stroke-linecap:round;stroke-linejoin:miter;stroke:rgb(13.72549%,12.156863%,12.54902%);stroke-opacity:1;stroke-miterlimit:1;" d="M 3.794141 13.876953 C 3.794141 13.876953 6.239844 20.166016 9.180078 13.857031 C 12.119141 7.553906 14.569922 13.842188 14.569922 13.842188 C 14.569922 13.842188 17.010938 20.135938 19.951172 13.832031 C 22.891016 7.525 25.328125 13.871875 25.328125 13.871875 C 25.328125 13.871875 27.764063 20.166016 30.707813 13.857031 C 33.642969 7.553906 36.083984 13.837109 36.083984 13.837109 " transform="matrix(10,0,0,10,0,0)"/>
<path style="fill:none;stroke-width:0.5625;stroke-linecap:round;stroke-linejoin:miter;stroke:rgb(100%,100%,100%);stroke-opacity:1;stroke-miterlimit:1;" d="M 35.517969 13.876953 C 35.517969 13.876953 33.071094 20.166016 30.128125 13.857031 C 27.192188 7.553906 24.741016 13.842188 24.741016 13.842188 C 24.741016 13.842188 22.294922 20.135938 19.355078 13.832031 C 16.421094 7.525 13.985156 13.871875 13.985156 13.871875 C 13.985156 13.871875 11.542188 20.166016 8.603906 13.857031 C 5.664062 7.553906 3.228125 13.837109 3.228125 13.837109 " transform="matrix(10,0,0,10,0,0)"/>
<path style="fill:none;stroke-width:1.125;stroke-linecap:round;stroke-linejoin:miter;stroke:rgb(100%,100%,100%);stroke-opacity:1;stroke-miterlimit:1;" d="M 3.228125 13.876953 C 3.228125 13.876953 5.673828 20.166016 8.614063 13.857031 C 11.553125 7.553906 14.003906 13.842188 14.003906 13.842188 C 14.003906 13.842188 16.444141 20.135938 19.383984 13.832031 C 22.323828 7.525 24.760938 13.871875 24.760938 13.871875 C 24.760938 13.871875 27.196875 20.166016 30.141016 13.857031 C 33.076172 7.553906 35.517969 13.837109 35.517969 13.837109 " transform="matrix(10,0,0,10,0,0)"/>
<path style="fill:none;stroke-width:0.5625;stroke-linecap:round;stroke-linejoin:miter;stroke:rgb(13.72549%,12.156863%,12.54902%);stroke-opacity:1;stroke-miterlimit:1;" d="M 36.083984 13.876953 C 36.083984 13.876953 33.637891 20.166016 30.694141 13.857031 C 27.758984 7.553906 25.307813 13.842188 25.307813 13.842188 C 25.307813 13.842188 22.860938 20.135938 19.921875 13.832031 C 16.987109 7.525 14.551953 13.871875 14.551953 13.871875 C 14.551953 13.871875 12.110156 20.166016 9.169922 13.857031 C 6.230078 7.553906 3.794141 13.837109 3.794141 13.837109 " transform="matrix(10,0,0,10,0,0)"/>
<path style="fill:none;stroke-width:1.125;stroke-linecap:round;stroke-linejoin:miter;stroke:rgb(13.72549%,12.156863%,12.54902%);stroke-opacity:1;stroke-miterlimit:1;" d="M 3.794141 13.876953 C 3.794141 13.876953 6.239844 20.166016 9.180078 13.857031 C 12.119141 7.553906 14.569922 13.842188 14.569922 13.842188 C 14.569922 13.842188 17.010938 20.135938 19.951172 13.832031 C 22.891016 7.525 25.328125 13.871875 25.328125 13.871875 C 25.328125 13.871875 27.764063 20.166016 30.707813 13.857031 C 33.642969 7.553906 36.083984 13.837109 36.083984 13.837109 " transform="matrix(10,0,0,10,0,0)"/>
<path style="fill:none;stroke-width:0.5625;stroke-linecap:round;stroke-linejoin:miter;stroke:rgb(100%,100%,100%);stroke-opacity:1;stroke-miterlimit:1;" d="M 35.517969 13.876953 C 35.517969 13.876953 33.071094 20.166016 30.128125 13.857031 C 27.192188 7.553906 24.741016 13.842188 24.741016 13.842188 C 24.741016 13.842188 22.294922 20.135938 19.355078 13.832031 C 16.421094 7.525 13.985156 13.871875 13.985156 13.871875 C 13.985156 13.871875 11.542188 20.166016 8.603906 13.857031 C 5.664062 7.553906 3.228125 13.837109 3.228125 13.837109 " transform="matrix(10,0,0,10,0,0)"/>
<path style="fill:none;stroke-width:1.125;stroke-linecap:round;stroke-linejoin:miter;stroke:rgb(100%,100%,100%);stroke-opacity:1;stroke-miterlimit:1;" d="M 3.228125 13.876953 C 3.228125 13.876953 5.673828 20.166016 8.614063 13.857031 C 11.553125 7.553906 14.003906 13.842188 14.003906 13.842188 C 14.003906 13.842188 16.444141 20.135938 19.383984 13.832031 C 22.323828 7.525 24.760938 13.871875 24.760938 13.871875 C 24.760938 13.871875 27.196875 20.166016 30.141016 13.857031 C 33.076172 7.553906 35.517969 13.837109 35.517969 13.837109 " transform="matrix(10,0,0,10,0,0)"/>
</g>
</svg>

<svg xmlns="http://www.w3.org/2000/svg" viewBox="0 0 46.25 20" height="20" width="46.25"><path d="M.756 7.661l9.62-7.11h35.131l-6.992 7.11H.756" fill="#087bbb"/><path d="M.756 7.661l9.62-7.11h35.131l-6.992 7.11H.756z" fill="none" stroke="#fff" stroke-width=".5"/><path d="M38.515 19.893l6.992-7.085V.576l-6.992 7.085v12.232" fill="#087bbb"/><path d="M38.515 19.893l6.992-7.085V.576l-6.992 7.085v12.232z" fill="none" stroke="#fff" stroke-width=".5"/><path d="M.81 19.902h37.705V7.662H.81v12.24z" fill="#087bbb"/><path d="M.81 19.902h37.705V7.662H.81v12.24z" fill="none" stroke="#fff" stroke-width=".5"/><path d="M35.518 13.877s-2.447 6.289-5.39-.02c-2.936-6.303-5.387-.015-5.387-.015s-2.446 6.294-5.386-.01c-2.934-6.307-5.37.04-5.37.04s-2.443 6.294-5.381-.015c-2.94-6.303-5.376-.02-5.376-.02" fill="none" stroke="#fff" stroke-width=".5625" stroke-linecap="round" stroke-miterlimit="1"/><path d="M3.228 13.877s2.446 6.289 5.386-.02c2.939-6.303 5.39-.015 5.39-.015s2.44 6.294 5.38-.01c2.94-6.307 5.377.04 5.377.04s2.436 6.294 5.38-.015c2.935-6.303 5.377-.02 5.377-.02" fill="none" stroke="#fff" stroke-width="1.125" stroke-linecap="round" stroke-miterlimit="1"/><path d="M36.084 13.877s-2.446 6.289-5.39-.02c-2.935-6.303-5.386-.015-5.386-.015s-2.447 6.294-5.386-.01c-2.935-6.307-5.37.04-5.37.04s-2.442 6.294-5.382-.015c-2.94-6.303-5.376-.02-5.376-.02" fill="none" stroke="#231f20" stroke-width=".5625" stroke-linecap="round" stroke-miterlimit="1"/><path d="M3.794 13.877s2.446 6.289 5.386-.02c2.939-6.303 5.39-.015 5.39-.015s2.441 6.294 5.381-.01c2.94-6.307 5.377.04 5.377.04s2.436 6.294 5.38-.015c2.935-6.303 5.376-.02 5.376-.02" fill="none" stroke="#231f20" stroke-width="1.125" stroke-linecap="round" stroke-miterlimit="1"/><path d="M35.518 13.877s-2.447 6.289-5.39-.02c-2.936-6.303-5.387-.015-5.387-.015s-2.446 6.294-5.386-.01c-2.934-6.307-5.37.04-5.37.04s-2.443 6.294-5.381-.015c-2.94-6.303-5.376-.02-5.376-.02" fill="none" stroke="#fff" stroke-width=".5625" stroke-linecap="round" stroke-miterlimit="1"/><path d="M3.228 13.877s2.446 6.289 5.386-.02c2.939-6.303 5.39-.015 5.39-.015s2.44 6.294 5.38-.01c2.94-6.307 5.377.04 5.377.04s2.436 6.294 5.38-.015c2.935-6.303 5.377-.02 5.377-.02" fill="none" stroke="#fff" stroke-width="1.125" stroke-linecap="round" stroke-miterlimit="1"/><path d="M36.084 13.877s-2.446 6.289-5.39-.02c-2.935-6.303-5.386-.015-5.386-.015s-2.447 6.294-5.386-.01c-2.935-6.307-5.37.04-5.37.04s-2.442 6.294-5.382-.015c-2.94-6.303-5.376-.02-5.376-.02" fill="none" stroke="#231f20" stroke-width=".5625" stroke-linecap="round" stroke-miterlimit="1"/><path d="M3.794 13.877s2.446 6.289 5.386-.02c2.939-6.303 5.39-.015 5.39-.015s2.441 6.294 5.381-.01c2.94-6.307 5.377.04 5.377.04s2.436 6.294 5.38-.015c2.935-6.303 5.376-.02 5.376-.02" fill="none" stroke="#231f20" stroke-width="1.125" stroke-linecap="round" stroke-miterlimit="1"/><path d="M35.518 13.877s-2.447 6.289-5.39-.02c-2.936-6.303-5.387-.015-5.387-.015s-2.446 6.294-5.386-.01c-2.934-6.307-5.37.04-5.37.04s-2.443 6.294-5.381-.015c-2.94-6.303-5.376-.02-5.376-.02" fill="none" stroke="#fff" stroke-width=".5625" stroke-linecap="round" stroke-miterlimit="1"/><path d="M3.228 13.877s2.446 6.289 5.386-.02c2.939-6.303 5.39-.015 5.39-.015s2.44 6.294 5.38-.01c2.94-6.307 5.377.04 5.377.04s2.436 6.294 5.38-.015c2.935-6.303 5.377-.02 5.377-.02" fill="none" stroke="#fff" stroke-width="1.125" stroke-linecap="round" stroke-miterlimit="1"/></svg>
